Numix/32/status/weather-snow.svg

<?xml version="1.0" encoding="UTF-8" standalone="yes"?>
<svg xmlns="http://www.w3.org/2000/svg" xmlns:xlink="http://www.w3.org/1999/xlink" width="32px" height="32px" viewBox="0 0 24 24" version="1.1">
  <g id="surface1">
    <path style=" stroke:none;fill-rule:nonzero;fill:rgb(92.54902%,92.54902%,92.54902%);fill-opacity:1;" d="M 8.738281 5 C 8.5625 5 8.375 5.007812 8.1875 5.03125 C 5.15625 5.421875 5.25 8.023438 5.25 8.023438 C 4.007812 8.234375 3 9.3125 3 10.445312 C 3 11.578125 4.292969 12.582031 5.378906 12.875 C 6.023438 13.046875 6.871094 12.875 6.871094 12.875 C 7.253906 13.546875 8.519531 14 9.398438 14 C 10.835938 14 12.316406 13.523438 12.65625 12.875 C 12.65625 12.875 18.609375 13.351562 19.847656 12.875 C 21.648438 12.179688 21.085938 10.011719 19.890625 9.28125 C 18.691406 8.546875 17.125 9.058594 17.125 9.058594 C 17.125 9.058594 17.117188 7.566406 15.425781 6.851562 C 13.734375 6.140625 12.304688 7.71875 12.304688 7.71875 C 12.304688 7.71875 11.359375 5.015625 8.738281 5 Z M 8.738281 5 "/>
    <path style=" stroke:none;fill-rule:nonzero;fill:rgb(92.54902%,92.54902%,92.54902%);fill-opacity:1;" d="M 5.390625 13.8125 C 5.34375 13.824219 5.3125 13.871094 5.3125 13.921875 L 5.3125 14.257812 L 5.03125 14.070312 C 4.914062 13.992188 4.804688 14.175781 4.921875 14.253906 L 5.3125 14.515625 L 5.3125 15.125 L 4.8125 14.820312 L 4.792969 14.332031 C 4.792969 14.261719 4.730469 14.210938 4.664062 14.226562 C 4.617188 14.238281 4.582031 14.285156 4.585938 14.335938 L 4.601562 14.695312 L 4.324219 14.527344 C 4.203125 14.421875 4.070312 14.644531 4.21875 14.710938 L 4.5 14.878906 L 4.195312 15.046875 C 4.042969 15.101562 4.164062 15.335938 4.292969 15.234375 L 4.710938 15.011719 L 5.210938 15.3125 L 4.707031 15.613281 L 4.292969 15.390625 C 4.164062 15.289062 4.042969 15.523438 4.195312 15.578125 L 4.496094 15.742188 L 4.21875 15.910156 C 4.097656 15.984375 4.203125 16.171875 4.324219 16.101562 L 4.601562 15.929688 L 4.585938 16.289062 C 4.582031 16.433594 4.789062 16.4375 4.792969 16.296875 L 4.8125 15.804688 L 5.3125 15.5 L 5.3125 16.109375 L 4.921875 16.375 C 4.804688 16.453125 4.914062 16.636719 5.03125 16.554688 L 5.3125 16.367188 L 5.3125 16.703125 C 5.3125 16.84375 5.523438 16.84375 5.523438 16.703125 L 5.523438 16.367188 L 5.808594 16.554688 C 5.925781 16.636719 6.039062 16.453125 5.921875 16.375 L 5.523438 16.109375 L 5.523438 15.496094 L 6.023438 15.804688 L 6.039062 16.296875 C 6.046875 16.4375 6.25 16.433594 6.25 16.289062 L 6.234375 15.929688 L 6.507812 16.101562 C 6.632812 16.171875 6.734375 15.984375 6.617188 15.910156 L 6.339844 15.742188 L 6.636719 15.578125 C 6.789062 15.523438 6.671875 15.289062 6.539062 15.390625 L 6.125 15.613281 L 5.621094 15.3125 L 6.121094 15.011719 L 6.539062 15.234375 C 6.671875 15.335938 6.789062 15.101562 6.636719 15.046875 L 6.335938 14.878906 L 6.617188 14.710938 C 6.761719 14.644531 6.632812 14.421875 6.507812 14.527344 L 6.234375 14.695312 L 6.25 14.335938 C 6.253906 14.261719 6.1875 14.203125 6.117188 14.226562 C 6.070312 14.242188 6.039062 14.28125 6.039062 14.332031 L 6.023438 14.820312 L 5.523438 15.125 L 5.523438 14.515625 L 5.921875 14.253906 C 6.039062 14.175781 5.925781 13.992188 5.808594 14.070312 L 5.523438 14.257812 L 5.523438 13.921875 C 5.523438 13.859375 5.476562 13.8125 5.414062 13.8125 C 5.40625 13.8125 5.398438 13.8125 5.390625 13.8125 Z M 18.5625 14.085938 C 18.515625 14.09375 18.476562 14.140625 18.476562 14.195312 L 18.476562 14.53125 L 18.195312 14.34375 C 18.078125 14.265625 17.96875 14.449219 18.085938 14.527344 L 18.476562 14.789062 L 18.476562 15.398438 L 17.976562 15.09375 L 17.960938 14.605469 C 17.960938 14.535156 17.898438 14.484375 17.828125 14.5 C 17.78125 14.511719 17.75 14.558594 17.75 14.609375 L 17.765625 14.96875 L 17.492188 14.800781 C 17.363281 14.679688 17.226562 14.929688 17.390625 14.984375 L 17.664062 15.148438 L 17.363281 15.320312 C 17.210938 15.375 17.328125 15.609375 17.460938 15.507812 L 17.878906 15.285156 L 18.378906 15.585938 L 17.878906 15.886719 L 17.460938 15.664062 C 17.328125 15.5625 17.210938 15.796875 17.363281 15.851562 L 17.660156 16.015625 L 17.390625 16.183594 C 17.257812 16.25 17.367188 16.453125 17.492188 16.375 L 17.765625 16.203125 L 17.75 16.5625 C 17.746094 16.707031 17.953125 16.710938 17.960938 16.570312 L 17.976562 16.078125 L 18.476562 15.773438 L 18.476562 16.382812 L 18.085938 16.648438 C 17.96875 16.726562 18.078125 16.90625 18.195312 16.828125 L 18.476562 16.640625 L 18.476562 16.976562 C 18.476562 17.117188 18.6875 17.117188 18.6875 16.976562 L 18.6875 16.640625 L 18.972656 16.828125 C 19.089844 16.90625 19.203125 16.726562 19.085938 16.648438 L 18.6875 16.382812 L 18.6875 15.769531 L 19.1875 16.078125 L 19.207031 16.570312 C 19.210938 16.710938 19.417969 16.707031 19.414062 16.5625 L 19.398438 16.203125 L 19.675781 16.375 C 19.796875 16.445312 19.902344 16.257812 19.78125 16.183594 L 19.507812 16.015625 L 19.804688 15.851562 C 19.957031 15.796875 19.835938 15.5625 19.707031 15.664062 L 19.292969 15.886719 L 18.792969 15.585938 L 19.292969 15.285156 L 19.707031 15.507812 C 19.835938 15.609375 19.957031 15.375 19.804688 15.320312 L 19.503906 15.148438 L 19.78125 14.984375 C 19.929688 14.917969 19.796875 14.695312 19.675781 14.800781 L 19.398438 14.96875 L 19.414062 14.609375 C 19.417969 14.539062 19.351562 14.484375 19.289062 14.5 C 19.242188 14.507812 19.207031 14.554688 19.207031 14.605469 L 19.1875 15.09375 L 18.6875 15.398438 L 18.6875 14.789062 L 19.085938 14.527344 C 19.203125 14.449219 19.089844 14.265625 18.972656 14.34375 L 18.6875 14.53125 L 18.6875 14.195312 C 18.6875 14.136719 18.640625 14.085938 18.585938 14.085938 C 18.585938 14.085938 18.574219 14.085938 18.574219 14.085938 C 18.574219 14.085938 18.5625 14.085938 18.5625 14.085938 Z M 13.667969 14.464844 C 13.601562 14.484375 13.558594 14.546875 13.5625 14.617188 L 13.5625 15.0625 L 13.179688 14.804688 C 13.023438 14.703125 12.875 14.945312 13.03125 15.050781 L 13.5625 15.402344 L 13.5625 16.222656 L 12.890625 15.8125 L 12.867188 15.148438 C 12.863281 15.0625 12.789062 15 12.707031 15.011719 C 12.632812 15.023438 12.585938 15.09375 12.589844 15.167969 L 12.605469 15.636719 L 12.238281 15.414062 C 12.078125 15.316406 11.9375 15.574219 12.101562 15.671875 L 12.46875 15.890625 L 12.070312 16.109375 C 11.878906 16.1875 12.023438 16.484375 12.195312 16.367188 L 12.753906 16.066406 L 13.421875 16.46875 L 12.753906 16.875 L 12.195312 16.574219 C 12.023438 16.453125 11.878906 16.75 12.070312 16.828125 L 12.46875 17.046875 L 12.101562 17.269531 C 11.921875 17.359375 12.074219 17.640625 12.238281 17.523438 L 12.605469 17.296875 L 12.589844 17.773438 C 12.570312 17.976562 12.871094 17.992188 12.867188 17.78125 L 12.890625 17.125 L 13.5625 16.71875 L 13.5625 17.53125 L 13.03125 17.882812 C 12.875 17.988281 13.023438 18.234375 13.179688 18.128906 L 13.5625 17.875 L 13.5625 18.324219 C 13.546875 18.53125 13.851562 18.53125 13.839844 18.324219 L 13.839844 17.875 L 14.222656 18.128906 C 14.375 18.234375 14.523438 17.988281 14.371094 17.882812 L 13.839844 17.53125 L 13.839844 16.71875 L 14.515625 17.125 L 14.535156 17.78125 C 14.53125 17.992188 14.832031 17.976562 14.8125 17.773438 L 14.796875 17.296875 L 15.164062 17.523438 C 15.328125 17.640625 15.484375 17.359375 15.300781 17.269531 L 14.933594 17.046875 L 15.332031 16.828125 C 15.523438 16.75 15.375 16.453125 15.203125 16.574219 L 14.652344 16.875 L 13.976562 16.472656 L 14.652344 16.066406 L 15.203125 16.367188 C 15.375 16.484375 15.523438 16.1875 15.332031 16.109375 L 14.933594 15.890625 L 15.300781 15.671875 C 15.460938 15.570312 15.328125 15.316406 15.164062 15.414062 L 14.796875 15.636719 L 14.8125 15.167969 C 14.820312 15.074219 14.742188 15 14.652344 15.011719 C 14.585938 15.023438 14.539062 15.082031 14.535156 15.148438 L 14.515625 15.808594 L 13.839844 16.21875 L 13.839844 15.402344 L 14.371094 15.050781 C 14.523438 14.945312 14.375 14.703125 14.21875 14.804688 L 13.839844 15.0625 L 13.839844 14.617188 C 13.84375 14.527344 13.769531 14.453125 13.6875 14.464844 C 13.679688 14.464844 13.671875 14.464844 13.667969 14.464844 Z M 8.875 17.367188 C 8.867188 17.367188 8.863281 17.367188 8.859375 17.371094 C 8.796875 17.386719 8.75 17.445312 8.75 17.515625 L 8.75 17.96875 L 8.367188 17.710938 C 8.214844 17.609375 8.0625 17.851562 8.21875 17.957031 L 8.75 18.304688 L 8.75 19.121094 L 8.078125 18.714844 L 8.054688 18.054688 C 8.054688 17.960938 7.96875 17.890625 7.882812 17.917969 C 7.816406 17.9375 7.773438 18 7.78125 18.070312 L 7.796875 18.539062 L 7.429688 18.320312 C 7.265625 18.199219 7.109375 18.476562 7.289062 18.570312 L 7.65625 18.792969 L 7.257812 19.007812 C 7.070312 19.089844 7.21875 19.382812 7.386719 19.265625 L 7.9375 18.964844 L 8.609375 19.367188 L 7.9375 19.773438 L 7.386719 19.472656 C 7.21875 19.355469 7.070312 19.648438 7.257812 19.726562 L 7.65625 19.945312 L 7.289062 20.171875 C 7.125 20.265625 7.265625 20.523438 7.429688 20.425781 L 7.796875 20.203125 L 7.78125 20.671875 C 7.757812 20.875 8.054688 20.890625 8.054688 20.6875 L 8.078125 20.03125 L 8.75 19.625 L 8.75 20.4375 L 8.21875 20.789062 C 8.0625 20.890625 8.214844 21.140625 8.367188 21.035156 L 8.75 20.777344 L 8.75 21.226562 C 8.738281 21.429688 9.042969 21.429688 9.03125 21.226562 L 9.03125 20.777344 L 9.414062 21.035156 C 9.570312 21.140625 9.71875 20.890625 9.5625 20.789062 L 9.03125 20.4375 L 9.03125 19.625 L 9.703125 20.03125 L 9.726562 20.6875 C 9.726562 20.890625 10.023438 20.875 10 20.671875 L 9.984375 20.203125 L 10.351562 20.425781 C 10.515625 20.523438 10.65625 20.265625 10.492188 20.171875 L 10.125 19.945312 L 10.523438 19.726562 C 10.710938 19.648438 10.566406 19.355469 10.394531 19.472656 L 9.84375 19.773438 L 9.167969 19.367188 L 9.84375 18.964844 L 10.394531 19.265625 C 10.566406 19.382812 10.710938 19.089844 10.523438 19.007812 L 10.125 18.792969 L 10.492188 18.570312 C 10.671875 18.476562 10.515625 18.199219 10.351562 18.320312 L 9.984375 18.539062 L 10 18.070312 C 10.007812 17.984375 9.945312 17.914062 9.867188 17.914062 C 9.789062 17.90625 9.726562 17.976562 9.726562 18.054688 L 9.703125 18.714844 L 9.03125 19.121094 L 9.03125 18.304688 L 9.5625 17.957031 C 9.71875 17.851562 9.570312 17.601562 9.414062 17.710938 L 9.03125 17.96875 L 9.03125 17.515625 C 9.03125 17.425781 8.960938 17.355469 8.875 17.367188 Z M 17.117188 18.5 C 17.070312 18.515625 17.035156 18.5625 17.039062 18.613281 L 17.039062 18.949219 L 16.75 18.757812 C 16.632812 18.679688 16.523438 18.867188 16.640625 18.945312 L 17.039062 19.203125 L 17.039062 19.8125 L 16.539062 19.511719 L 16.515625 19.015625 C 16.515625 18.945312 16.449219 18.894531 16.382812 18.914062 C 16.335938 18.929688 16.304688 18.976562 16.3125 19.027344 L 16.328125 19.382812 L 16.050781 19.21875 C 15.929688 19.109375 15.796875 19.335938 15.945312 19.398438 L 16.21875 19.570312 L 15.921875 19.734375 C 15.765625 19.789062 15.890625 20.027344 16.015625 19.921875 L 16.433594 19.695312 L 16.9375 20 L 16.433594 20.304688 L 16.015625 20.078125 C 15.890625 19.976562 15.765625 20.21875 15.921875 20.269531 L 16.21875 20.429688 L 15.945312 20.601562 C 15.824219 20.671875 15.929688 20.863281 16.050781 20.789062 L 16.328125 20.621094 L 16.3125 20.976562 C 16.304688 21.125 16.515625 21.128906 16.515625 20.984375 L 16.539062 20.492188 L 17.039062 20.191406 L 17.039062 20.800781 L 16.640625 21.0625 C 16.523438 21.140625 16.632812 21.324219 16.75 21.246094 L 17.039062 21.054688 L 17.039062 21.390625 C 17.039062 21.539062 17.246094 21.539062 17.246094 21.390625 L 17.246094 21.054688 L 17.527344 21.246094 C 17.644531 21.324219 17.757812 21.140625 17.640625 21.0625 L 17.246094 20.800781 L 17.246094 20.1875 L 17.746094 20.492188 L 17.765625 20.984375 C 17.773438 21.128906 17.976562 21.125 17.976562 20.976562 L 17.960938 20.621094 L 18.234375 20.789062 C 18.359375 20.867188 18.464844 20.667969 18.335938 20.601562 L 18.0625 20.429688 L 18.359375 20.269531 C 18.515625 20.21875 18.398438 19.976562 18.265625 20.078125 L 17.84375 20.304688 L 17.347656 20 L 17.84375 19.703125 L 18.265625 19.921875 C 18.398438 20.027344 18.515625 19.789062 18.359375 19.734375 L 18.058594 19.570312 L 18.335938 19.398438 C 18.5 19.34375 18.359375 19.09375 18.234375 19.21875 L 17.960938 19.382812 L 17.976562 19.027344 C 17.976562 18.953125 17.910156 18.894531 17.84375 18.914062 C 17.796875 18.929688 17.765625 18.96875 17.765625 19.015625 L 17.746094 19.511719 L 17.246094 19.8125 L 17.246094 19.203125 L 17.640625 18.945312 C 17.757812 18.867188 17.644531 18.679688 17.527344 18.757812 L 17.246094 18.949219 L 17.246094 18.613281 C 17.25 18.554688 17.199219 18.5 17.140625 18.5 C 17.132812 18.5 17.125 18.5 17.117188 18.5 Z M 17.117188 18.5 "/>
  </g>
</svg>

<svg xmlns="http://www.w3.org/2000/svg" width="32" height="32" viewBox="0 0 24 24">
 <g>
  <path d="m 8.738 5 c -0.176 0 -0.363 0.008 -0.551 0.031 c -3.03 0.391 -2.938 2.992 -2.938 2.992 c -1.242 0.211 -2.25 1.289 -2.25 2.422 c 0 1.133 1.293 2.137 2.379 2.43 c 0.645 0.172 1.492 0 1.492 0 c 0.383 0.672 1.648 1.125 2.527 1.125 c 1.438 0 2.918 -0.477 3.258 -1.125 c 0 0 5.953 0.477 7.191 0 c 1.801 -0.695 1.238 -2.863 0.043 -3.594 c -1.199 -0.734 -2.766 -0.223 -2.766 -0.223 c 0 0 -0.008 -1.492 -1.699 -2.207 c -1.691 -0.711 -3.121 0.867 -3.121 0.867 c 0 0 -0.945 -2.703 -3.566 -2.719 m 0 0" style="fill:#ececec;fill-opacity:1;stroke:none;fill-rule:nonzero"/>
  <path d="m 5.391 13.813 c -0.047 0.012 -0.078 0.059 -0.078 0.109 l 0 0.336 l -0.281 -0.188 c -0.117 -0.078 -0.227 0.105 -0.109 0.184 l 0.391 0.262 l 0 0.609 l -0.5 -0.305 l -0.02 -0.488 c 0 -0.07 -0.063 -0.121 -0.129 -0.105 c -0.047 0.012 -0.082 0.059 -0.078 0.109 l 0.016 0.359 l -0.277 -0.168 c -0.121 -0.105 -0.254 0.117 -0.105 0.184 l 0.281 0.168 l -0.305 0.168 c -0.152 0.055 -0.031 0.289 0.098 0.188 l 0.418 -0.223 l 0.5 0.301 l -0.504 0.301 l -0.414 -0.223 c -0.129 -0.102 -0.25 0.133 -0.098 0.188 l 0.301 0.164 l -0.277 0.168 c -0.121 0.074 -0.016 0.262 0.105 0.191 l 0.277 -0.172 l -0.016 0.359 c -0.004 0.145 0.203 0.148 0.207 0.008 l 0.02 -0.492 l 0.5 -0.305 l 0 0.609 l -0.391 0.266 c -0.117 0.078 -0.008 0.262 0.109 0.18 l 0.281 -0.188 l 0 0.336 c 0 0.141 0.211 0.141 0.211 0 l 0 -0.336 l 0.285 0.188 c 0.117 0.082 0.23 -0.102 0.113 -0.18 l -0.398 -0.266 l 0 -0.613 l 0.5 0.309 l 0.016 0.492 c 0.008 0.141 0.211 0.137 0.211 -0.008 l -0.016 -0.359 l 0.273 0.172 c 0.125 0.07 0.227 -0.117 0.109 -0.191 l -0.277 -0.168 l 0.297 -0.164 c 0.152 -0.055 0.035 -0.289 -0.098 -0.188 l -0.414 0.223 l -0.504 -0.301 l 0.5 -0.301 l 0.418 0.223 c 0.133 0.102 0.25 -0.133 0.098 -0.188 l -0.301 -0.168 l 0.281 -0.168 c 0.145 -0.066 0.016 -0.289 -0.109 -0.184 l -0.273 0.168 l 0.016 -0.359 c 0.004 -0.074 -0.063 -0.133 -0.133 -0.109 c -0.047 0.016 -0.078 0.055 -0.078 0.105 l -0.016 0.488 l -0.5 0.305 l 0 -0.609 l 0.398 -0.262 c 0.117 -0.078 0.004 -0.262 -0.113 -0.184 l -0.285 0.188 l 0 -0.336 c 0 -0.063 -0.047 -0.109 -0.109 -0.109 c -0.008 0 -0.016 0 -0.023 0 m 13.172 0.273 c -0.047 0.008 -0.086 0.055 -0.086 0.109 l 0 0.336 l -0.281 -0.188 c -0.117 -0.078 -0.227 0.105 -0.109 0.184 l 0.391 0.262 l 0 0.609 l -0.5 -0.305 l -0.016 -0.488 c 0 -0.07 -0.063 -0.121 -0.133 -0.105 c -0.047 0.012 -0.078 0.059 -0.078 0.109 l 0.016 0.359 l -0.273 -0.168 c -0.129 -0.121 -0.266 0.129 -0.102 0.184 l 0.273 0.164 l -0.301 0.172 c -0.152 0.055 -0.035 0.289 0.098 0.188 l 0.418 -0.223 l 0.5 0.301 l -0.5 0.301 l -0.418 -0.223 c -0.133 -0.102 -0.25 0.133 -0.098 0.188 l 0.297 0.164 l -0.27 0.168 c -0.133 0.066 -0.023 0.27 0.102 0.191 l 0.273 -0.172 l -0.016 0.359 c -0.004 0.145 0.203 0.148 0.211 0.008 l 0.016 -0.492 l 0.5 -0.305 l 0 0.609 l -0.391 0.266 c -0.117 0.078 -0.008 0.258 0.109 0.18 l 0.281 -0.188 l 0 0.336 c 0 0.141 0.211 0.141 0.211 0 l 0 -0.336 l 0.285 0.188 c 0.117 0.078 0.23 -0.102 0.113 -0.18 l -0.398 -0.266 l 0 -0.613 l 0.5 0.309 l 0.02 0.492 c 0.004 0.141 0.211 0.137 0.207 -0.008 l -0.016 -0.359 l 0.277 0.172 c 0.121 0.07 0.227 -0.117 0.105 -0.191 l -0.273 -0.168 l 0.297 -0.164 c 0.152 -0.055 0.031 -0.289 -0.098 -0.188 l -0.414 0.223 l -0.5 -0.301 l 0.5 -0.301 l 0.414 0.223 c 0.129 0.102 0.25 -0.133 0.098 -0.188 l -0.301 -0.172 l 0.277 -0.164 c 0.148 -0.066 0.016 -0.289 -0.105 -0.184 l -0.277 0.168 l 0.016 -0.359 c 0.004 -0.07 -0.063 -0.125 -0.125 -0.109 c -0.047 0.008 -0.082 0.055 -0.082 0.105 l -0.02 0.488 l -0.5 0.305 l 0 -0.609 l 0.398 -0.262 c 0.117 -0.078 0.004 -0.262 -0.113 -0.184 l -0.285 0.188 l 0 -0.336 c 0 -0.059 -0.047 -0.109 -0.102 -0.109 c 0 0 -0.012 0 -0.012 0 c 0 0 -0.012 0 -0.012 0 m -4.895 0.379 c -0.066 0.02 -0.109 0.082 -0.105 0.152 l 0 0.445 l -0.383 -0.258 c -0.156 -0.102 -0.305 0.141 -0.148 0.246 l 0.531 0.352 l 0 0.82 l -0.672 -0.41 l -0.023 -0.664 c -0.004 -0.086 -0.078 -0.148 -0.16 -0.137 c -0.074 0.012 -0.121 0.082 -0.117 0.156 l 0.016 0.469 l -0.367 -0.223 c -0.16 -0.098 -0.301 0.16 -0.137 0.258 l 0.367 0.219 l -0.398 0.219 c -0.191 0.078 -0.047 0.375 0.125 0.258 l 0.559 -0.301 l 0.668 0.402 l -0.668 0.406 l -0.559 -0.301 c -0.172 -0.121 -0.316 0.176 -0.125 0.254 l 0.398 0.219 l -0.367 0.223 c -0.18 0.09 -0.027 0.371 0.137 0.254 l 0.367 -0.227 l -0.016 0.477 c -0.02 0.203 0.281 0.219 0.277 0.008 l 0.023 -0.656 l 0.672 -0.406 l 0 0.813 l -0.531 0.352 c -0.156 0.105 -0.008 0.352 0.148 0.246 l 0.383 -0.254 l 0 0.449 c -0.016 0.207 0.289 0.207 0.277 0 l 0 -0.449 l 0.383 0.254 c 0.152 0.105 0.301 -0.141 0.148 -0.246 l -0.531 -0.352 l 0 -0.813 l 0.676 0.406 l 0.02 0.656 c -0.004 0.211 0.297 0.195 0.277 -0.008 l -0.016 -0.477 l 0.367 0.227 c 0.164 0.117 0.32 -0.164 0.137 -0.254 l -0.367 -0.223 l 0.398 -0.219 c 0.191 -0.078 0.043 -0.375 -0.129 -0.254 l -0.551 0.301 l -0.676 -0.402 l 0.676 -0.406 l 0.551 0.301 c 0.172 0.117 0.32 -0.18 0.129 -0.258 l -0.398 -0.219 l 0.367 -0.219 c 0.16 -0.102 0.027 -0.355 -0.137 -0.258 l -0.367 0.223 l 0.016 -0.469 c 0.008 -0.094 -0.07 -0.168 -0.16 -0.156 c -0.066 0.012 -0.113 0.07 -0.117 0.137 l -0.02 0.66 l -0.676 0.41 l 0 -0.816 l 0.531 -0.352 c 0.152 -0.105 0.004 -0.348 -0.152 -0.246 l -0.379 0.258 l 0 -0.445 c 0.004 -0.09 -0.07 -0.164 -0.152 -0.152 c -0.008 0 -0.016 0 -0.02 0 m -4.793 2.902 c -0.008 0 -0.012 0 -0.016 0.004 c -0.063 0.016 -0.109 0.074 -0.109 0.145 l 0 0.453 l -0.383 -0.258 c -0.152 -0.102 -0.305 0.141 -0.148 0.246 l 0.531 0.348 l 0 0.816 l -0.672 -0.406 l -0.023 -0.66 c 0 -0.094 -0.086 -0.164 -0.172 -0.137 c -0.066 0.02 -0.109 0.082 -0.102 0.152 l 0.016 0.469 l -0.367 -0.219 c -0.164 -0.121 -0.32 0.156 -0.141 0.25 l 0.367 0.223 l -0.398 0.215 c -0.188 0.082 -0.039 0.375 0.129 0.258 l 0.551 -0.301 l 0.672 0.402 l -0.672 0.406 l -0.551 -0.301 c -0.168 -0.117 -0.316 0.176 -0.129 0.254 l 0.398 0.219 l -0.367 0.227 c -0.164 0.094 -0.023 0.352 0.141 0.254 l 0.367 -0.223 l -0.016 0.469 c -0.023 0.203 0.273 0.219 0.273 0.016 l 0.023 -0.656 l 0.672 -0.406 l 0 0.813 l -0.531 0.352 c -0.156 0.102 -0.004 0.352 0.148 0.246 l 0.383 -0.258 l 0 0.449 c -0.012 0.203 0.293 0.203 0.281 0 l 0 -0.449 l 0.383 0.258 c 0.156 0.105 0.305 -0.145 0.148 -0.246 l -0.531 -0.352 l 0 -0.813 l 0.672 0.406 l 0.023 0.656 c 0 0.203 0.297 0.188 0.273 -0.016 l -0.016 -0.469 l 0.367 0.223 c 0.164 0.098 0.305 -0.16 0.141 -0.254 l -0.367 -0.227 l 0.398 -0.219 c 0.188 -0.078 0.043 -0.371 -0.129 -0.254 l -0.551 0.301 l -0.676 -0.406 l 0.676 -0.402 l 0.551 0.301 c 0.172 0.117 0.316 -0.176 0.129 -0.258 l -0.398 -0.215 l 0.367 -0.223 c 0.18 -0.094 0.023 -0.371 -0.141 -0.25 l -0.367 0.219 l 0.016 -0.469 c 0.008 -0.086 -0.055 -0.156 -0.133 -0.156 c -0.078 -0.008 -0.141 0.063 -0.141 0.141 l -0.023 0.66 l -0.672 0.406 l 0 -0.816 l 0.531 -0.348 c 0.156 -0.105 0.008 -0.355 -0.148 -0.246 l -0.383 0.258 l 0 -0.453 c 0 -0.09 -0.07 -0.16 -0.156 -0.148 m 8.242 1.133 c -0.047 0.016 -0.082 0.063 -0.078 0.113 l 0 0.336 l -0.289 -0.191 c -0.117 -0.078 -0.227 0.109 -0.109 0.188 l 0.398 0.258 l 0 0.609 l -0.5 -0.301 l -0.023 -0.496 c 0 -0.07 -0.066 -0.121 -0.133 -0.102 c -0.047 0.016 -0.078 0.063 -0.07 0.113 l 0.016 0.355 l -0.277 -0.164 c -0.121 -0.109 -0.254 0.117 -0.105 0.18 l 0.273 0.172 l -0.297 0.164 c -0.156 0.055 -0.031 0.293 0.094 0.188 l 0.418 -0.227 l 0.504 0.305 l -0.504 0.305 l -0.418 -0.227 c -0.125 -0.102 -0.25 0.141 -0.094 0.191 l 0.297 0.16 l -0.273 0.172 c -0.121 0.07 -0.016 0.262 0.105 0.188 l 0.277 -0.168 l -0.016 0.355 c -0.008 0.148 0.203 0.152 0.203 0.008 l 0.023 -0.492 l 0.5 -0.301 l 0 0.609 l -0.398 0.262 c -0.117 0.078 -0.008 0.262 0.109 0.184 l 0.289 -0.191 l 0 0.336 c 0 0.148 0.207 0.148 0.207 0 l 0 -0.336 l 0.281 0.191 c 0.117 0.078 0.23 -0.105 0.113 -0.184 l -0.395 -0.262 l 0 -0.613 l 0.5 0.305 l 0.02 0.492 c 0.008 0.145 0.211 0.141 0.211 -0.008 l -0.016 -0.355 l 0.273 0.168 c 0.125 0.078 0.23 -0.121 0.102 -0.188 l -0.273 -0.172 l 0.297 -0.16 c 0.156 -0.051 0.039 -0.293 -0.094 -0.191 l -0.422 0.227 l -0.496 -0.305 l 0.496 -0.297 l 0.422 0.219 c 0.133 0.105 0.25 -0.133 0.094 -0.188 l -0.301 -0.164 l 0.277 -0.172 c 0.164 -0.055 0.023 -0.305 -0.102 -0.18 l -0.273 0.164 l 0.016 -0.355 c 0 -0.074 -0.066 -0.133 -0.133 -0.113 c -0.047 0.016 -0.078 0.055 -0.078 0.102 l -0.02 0.496 l -0.5 0.301 l 0 -0.609 l 0.395 -0.258 c 0.117 -0.078 0.004 -0.266 -0.113 -0.188 l -0.281 0.191 l 0 -0.336 c 0.004 -0.059 -0.047 -0.113 -0.105 -0.113 c -0.008 0 -0.016 0 -0.023 0 m 0 0" style="fill:#ececec;fill-opacity:1;stroke:none;fill-rule:nonzero"/>
 </g>
</svg>
